build/img/apple-link.svg

<svg width="18" height="18" viewBox="0 0 18 18" fill="none" xmlns="http://www.w3.org/2000/svg">
<path d="M13.1379 9.4166C13.1309 8.21777 13.674 7.31426 14.7709 6.64805C14.1574 5.76914 13.2293 5.28574 12.0059 5.19258C10.8475 5.10117 9.58008 5.86758 9.11602 5.86758C8.62559 5.86758 7.5041 5.22422 6.62168 5.22422C4.80059 5.25234 2.86523 6.67617 2.86523 9.57305C2.86523 10.4291 3.02168 11.3133 3.33457 12.2238C3.75293 13.4227 5.26113 16.36 6.83437 16.3125C7.65703 16.2932 8.23887 15.7289 9.30937 15.7289C10.3482 15.7289 10.8861 16.3125 11.8037 16.3125C13.391 16.2896 14.7551 13.6195 15.1523 12.4172C13.0236 11.4135 13.1379 9.47813 13.1379 9.4166ZM11.2904 4.05527C12.1816 2.99707 12.1008 2.03379 12.0744 1.6875C11.2869 1.7332 10.3764 2.22363 9.85781 2.82656C9.28652 3.47344 8.95078 4.27324 9.02285 5.175C9.87363 5.24004 10.6506 4.80234 11.2904 4.05527Z" fill="#1F2128"/>
</svg>

<svg width="18" height="18" fill="none" xmlns="http://www.w3.org/2000/svg"><path d="M13.138 9.417c-.007-1.2.536-2.103 1.633-2.769-.614-.879-1.542-1.362-2.765-1.455-1.159-.092-2.426.675-2.89.675-.49 0-1.612-.644-2.494-.644-1.821.028-3.757 1.452-3.757 4.35 0 .855.157 1.74.47 2.65.418 1.199 1.926 4.136 3.5 4.088.822-.019 1.404-.583 2.474-.583 1.04 0 1.577.584 2.495.584 1.587-.023 2.951-2.693 3.348-3.896-2.128-1.003-2.014-2.939-2.014-3ZM11.29 4.055c.892-1.058.81-2.021.784-2.367-.787.045-1.698.536-2.216 1.139-.571.646-.907 1.446-.835 2.348.85.065 1.628-.373 2.267-1.12Z" fill="#1F2128"/></svg>
